src/icons/main-account-notifications.svg

<svg enable-background="new 0 0 14 14" viewBox="0 0 14 14" xmlns="http://www.w3.org/2000/svg"><path d="m6.1 14c1 0 1.8-.8 1.8-1.8h-3.5c0 1 .8 1.8 1.7 1.8zm3-12-.4.4c-.4-.4-1.1-.7-1.7-.7-1.4 0-2.6 1.2-2.6 2.6 0 .7.3 1.4.8 1.8l1.7 1.9c.5.4 1.1.7 1.8.7s1.3-.2 1.8-.7v.7c0 .5.4.9.9.9s.9.4.9.9-.4.9-.9.9h-10.5c-.5 0-.9-.4-.9-.9s.4-.9.9-.9.9-.4.9-.9v-3.5c0-2.1 1.5-3.9 3.5-4.3v-.1c-.1-.4.3-.8.8-.8s.9.4.9.9v.1c.8.1 1.5.5 2.1 1zm-1 4.7-1.7-1.7c-.2-.2-.3-.4-.3-.6 0-.5.4-.9.9-.9.2 0 .5.1.6.3l1.1 1.1 2.9-2.9c.2-.2.4-.3.6-.3.5 0 .9.4.9.9 0 .2-.1.5-.3.6l-3.4 3.5c-.2.2-.4.3-.7.3s-.4-.1-.6-.3z" fill="#4d5969"/></svg>

<svg viewBox="0 0 14 14" xmlns="http://www.w3.org/2000/svg"><path d="M6.1 14c1 0 1.8-.8 1.8-1.8H4.4c0 1 .8 1.8 1.7 1.8zm3-12l-.4.4C8.3 2 7.6 1.7 7 1.7c-1.4 0-2.6 1.2-2.6 2.6 0 .7.3 1.4.8 1.8L6.9 8c.5.4 1.1.7 1.8.7s1.3-.2 1.8-.7v.7c0 .5.4.9.9.9s.9.4.9.9-.4.9-.9.9H.9c-.5 0-.9-.4-.9-.9s.4-.9.9-.9.9-.4.9-.9V5.2c0-2.1 1.5-3.9 3.5-4.3V.8c-.1-.4.3-.8.8-.8s.9.4.9.9V1c.8.1 1.5.5 2.1 1zm-1 4.7L6.4 5c-.2-.2-.3-.4-.3-.6 0-.5.4-.9.9-.9.2 0 .5.1.6.3l1.1 1.1L11.6 2c.2-.2.4-.3.6-.3.5 0 .9.4.9.9 0 .2-.1.5-.3.6L9.4 6.7c-.2.2-.4.3-.7.3s-.4-.1-.6-.3z" fill="#4d5969"/></svg>
